share/icons/Flat-Remix-Blue-Dark/mimetypes/scalable/application-torrent.svg

<svg width="36pt" height="36pt" version="1.1" viewBox="0 0 36 36" xmlns="http://www.w3.org/2000/svg"><defs><filter id="a" x="-.192" y="-.192" width="1.384" height="1.384" color-interpolation-filters="sRGB"><feGaussianBlur stdDeviation="0.67843748"/></filter></defs><path d="m7.3477 3.9022c-0.67188 0-1.3047 0.63281-1.3047 1.3047v27.391c0 0.63281 0.67188 1.3047 1.3047 1.3047h20.871c0.63281 0 1.3047-0.67188 1.3047-1.3047v-20.215l-8.4805-8.4805z" opacity=".3"/><path d="m7.3477 3.1523c-0.67188 0-1.3047 0.63281-1.3047 1.3047v27.391c0 0.63281 0.67188 1.3047 1.3047 1.3047h20.871c0.63281 0 1.3047-0.67188 1.3047-1.3047v-20.215l-8.4805-8.4805z" fill="#0ba05d"/><path d="m20.668 3.5272 8.4805 8.4805h-7.1758c-0.63281 0-1.3047-0.67187-1.3047-1.3047z" filter="url(#a)" opacity=".2"/><path d="m21.043 3.1523 8.4805 8.4805h-7.1758c-0.63281 0-1.3047-0.67187-1.3047-1.3047z" fill="#53bc8d"/><path d="m20.805 23.801h-2.1641c-0.66016 0-1.3047 0.011719-1.9297-0.23047-0.51172-0.19922-0.99609-0.5-1.3789-0.89844-1.2656-1.3242-1.4297-3.4258-0.28516-4.8867 0.69922-0.89062 1.7773-1.4609 2.918-1.4609 0.3125 0 0.96484-0.046875 1.0938 0.31641 0.066406 0.1875-0.074219 0.40234-0.26562 0.4375-0.18359 0.03125-0.39453-0.0625-0.58203-0.0625-0.54688-0.007813-1.0391 0.066406-1.543 0.29297-1.8555 0.83984-2.3164 3.5625-0.79688 4.9453 0.39062 0.35547 0.83594 0.62891 1.3477 0.76562 0.45703 0.11719 0.92578 0.09375 1.3945 0.09375h2.8086c0.11719 0 0.28906 0.03125 0.40234-0.007812 0.082031-0.03125 0.15625-0.125 0.21875-0.1875 0.15234-0.15234 0.38281-0.32031 0.46875-0.52344h-3.5273c-0.42578 0-0.875 0.042969-1.2969-0.019531-0.49609-0.070312-0.94141-0.30469-1.3086-0.64453-0.19141-0.17578-0.34375-0.40234-0.45703-0.63281-0.69922-1.4023 0.19922-3.0742 1.7266-3.3438 0.26172-0.046875 0.55078-0.035156 0.8125 0.019532 0.25781 0.050781 0.58203 0.14453 0.78516 0.32031 0.14453 0.125 0.16016 0.33594 0.035156 0.47656-0.18359 0.21094-0.37109 0.082032-0.57422-0.003906-0.15625-0.070312-0.32422-0.12109-0.49609-0.14062-0.73047-0.089843-1.4453 0.32031-1.7305 1.0039-0.35547 0.85547 0.097656 1.8828 0.97266 2.1875 0.42578 0.14844 0.91016 0.089843 1.3516 0.089843h3.6797c0.14453 0 0.38672 0.046875 0.51953-0.011719 0.054688-0.019531 0.082032-0.09375 0.10938-0.14062l0.21875-0.42969c0.26172-0.59375 0.4375-1.2031 0.50391-1.8477 0.28906-2.6953-1.3555-5.2656-3.9023-6.1719-1.9922-0.71094-4.3086-0.22266-5.8672 1.1914-0.73047 0.66016-1.2539 1.4844-1.5938 2.3984-0.45703 1.2227-0.45703 2.7148 0.003906 3.9336 0.10547 0.27734 0.21484 0.55469 0.36328 0.8125 0.035156 0.070313 0.085937 0.22656 0.16406 0.25391 0.17188 0.066407 0.027344-0.30469 0.015625-0.36328-0.11719-0.46094-0.15234-0.91797-0.15234-1.3945 0-2.0195 1.3633-3.8711 3.1953-4.6406 0.55078-0.23047 1.1797-0.37891 1.7773-0.37891 0.085937 0 0.17969-0.011719 0.26172 0.015625 0.19141 0.0625 0.30469 0.28125 0.21094 0.46484-0.12891 0.25-0.38281 0.1875-0.60938 0.21094-0.48828 0.046875-0.96484 0.14453-1.4219 0.33594-1.3086 0.55078-2.3281 1.7383-2.6289 3.1367-0.42188 1.9844 0.52344 4.0625 2.3555 4.9805 0.76953 0.38281 1.6133 0.50391 2.4648 0.44531 0.60156-0.042968 1.1953-0.18359 1.75-0.41016 0.17578-0.070312 0.45703-0.15234 0.58203-0.29688z" fill="#fff"/></svg>

<svg xmlns="http://www.w3.org/2000/svg" xmlns:xlink="http://www.w3.org/1999/xlink" width="36pt" height="36pt" version="1.1" viewBox="0 0 36 36"> <defs> <clipPath id="clip1"> <path d="M 20 2 L 31 2 L 31 13 L 20 13 Z M 20 2"/> </clipPath> <clipPath id="clip2"> <path d="M 20.515625 2.625 L 30.328125 12.4375 L 22.023438 12.4375 C 21.292969 12.4375 20.515625 11.660156 20.515625 10.929688 Z M 20.515625 2.625"/> </clipPath> <image id="image6" width="36" height="36" xlink:href="data:image/png;base64,iVBORw0KGgoAAAANSUhEUgAAACQAAAAkCAYAAADhAJiYAAAABmJLR0QA/wD/AP+gvaeTAAAAmklEQVRYhe3T0QqCQBBG4aOtYEoUvf9Lildltl00C4tkbBeTIP+BAUEYP1YW1Pcqh53B9kbgaVPcwQF0tAmGSrMZ6AKcDQXw+AUVHEAtcAUaewYYgYmC3+cBCkAPnDJQMcoDVNnebgEqQnmAclTz4d0I3P4JStc9AjXvk4qLWQV53LLeEOl05gw4A3dgcPiuUkoppZRSSqk99gLWvSJpuDnlsAAAAABJRU5ErkJggg=="/> </defs> <g> <path style="fill:rgb(4.705%,63.137%,36.862%)" d="M 7.347656 3.152344 C 6.675781 3.152344 6.042969 3.785156 6.042969 4.457031 L 6.042969 31.847656 C 6.042969 32.480469 6.714844 33.152344 7.347656 33.152344 L 28.21875 33.152344 C 28.851562 33.152344 29.523438 32.480469 29.523438 31.847656 L 29.523438 11.632812 L 21.042969 3.152344 Z M 7.347656 3.152344"/> <g clip-path="url(#clip1)"> <g clip-path="url(#clip2)"> <use xlink:href="#image6"/> </g> </g> <path style="fill:rgb(32.941%,74.117%,55.686%)" d="M 21.042969 3.152344 L 29.523438 11.632812 L 22.347656 11.632812 C 21.714844 11.632812 21.042969 10.960938 21.042969 10.328125 Z M 21.042969 3.152344"/> <path style="fill:rgb(100.000%,100.000%,100.000%)" d="M 20.804688 23.800781 L 18.640625 23.800781 C 17.980469 23.800781 17.335938 23.8125 16.710938 23.570312 C 16.199219 23.371094 15.714844 23.070312 15.332031 22.671875 C 14.066406 21.347656 13.902344 19.246094 15.046875 17.785156 C 15.746094 16.894531 16.824219 16.324219 17.964844 16.324219 C 18.277344 16.324219 18.929688 16.277344 19.058594 16.640625 C 19.125 16.828125 18.984375 17.042969 18.792969 17.078125 C 18.609375 17.109375 18.398438 17.015625 18.210938 17.015625 C 17.664062 17.007812 17.171875 17.082031 16.667969 17.308594 C 14.8125 18.148438 14.351562 20.871094 15.871094 22.253906 C 16.261719 22.609375 16.707031 22.882812 17.21875 23.019531 C 17.675781 23.136719 18.144531 23.113281 18.613281 23.113281 L 21.421875 23.113281 C 21.539062 23.113281 21.710938 23.144531 21.824219 23.105469 C 21.90625 23.074219 21.980469 22.980469 22.042969 22.917969 C 22.195312 22.765625 22.425781 22.597656 22.511719 22.394531 L 18.984375 22.394531 C 18.558594 22.394531 18.109375 22.4375 17.6875 22.375 C 17.191406 22.304688 16.746094 22.070312 16.378906 21.730469 C 16.1875 21.554688 16.035156 21.328125 15.921875 21.097656 C 15.222656 19.695312 16.121094 18.023438 17.648438 17.753906 C 17.910156 17.707031 18.199219 17.71875 18.460938 17.773438 C 18.71875 17.824219 19.042969 17.917969 19.246094 18.09375 C 19.390625 18.21875 19.40625 18.429688 19.28125 18.570312 C 19.097656 18.78125 18.910156 18.652344 18.707031 18.566406 C 18.550781 18.496094 18.382812 18.445312 18.210938 18.425781 C 17.480469 18.335938 16.765625 18.746094 16.480469 19.429688 C 16.125 20.285156 16.578125 21.3125 17.453125 21.617188 C 17.878906 21.765625 18.363281 21.707031 18.804688 21.707031 L 22.484375 21.707031 C 22.628906 21.707031 22.871094 21.753906 23.003906 21.695312 C 23.058594 21.675781 23.085938 21.601562 23.113281 21.554688 L 23.332031 21.125 C 23.59375 20.53125 23.769531 19.921875 23.835938 19.277344 C 24.125 16.582031 22.480469 14.011719 19.933594 13.105469 C 17.941406 12.394531 15.625 12.882812 14.066406 14.296875 C 13.335938 14.957031 12.8125 15.78125 12.472656 16.695312 C 12.015625 17.917969 12.015625 19.410156 12.476562 20.628906 C 12.582031 20.90625 12.691406 21.183594 12.839844 21.441406 C 12.875 21.511719 12.925781 21.667969 13.003906 21.695312 C 13.175781 21.761719 13.03125 21.390625 13.019531 21.332031 C 12.902344 20.871094 12.867188 20.414062 12.867188 19.9375 C 12.867188 17.917969 14.230469 16.066406 16.0625 15.296875 C 16.613281 15.066406 17.242188 14.917969 17.839844 14.917969 C 17.925781 14.917969 18.019531 14.90625 18.101562 14.933594 C 18.292969 14.996094 18.40625 15.214844 18.3125 15.398438 C 18.183594 15.648438 17.929688 15.585938 17.703125 15.609375 C 17.214844 15.65625 16.738281 15.753906 16.28125 15.945312 C 14.972656 16.496094 13.953125 17.683594 13.652344 19.082031 C 13.230469 21.066406 14.175781 23.144531 16.007812 24.0625 C 16.777344 24.445312 17.621094 24.566406 18.472656 24.507812 C 19.074219 24.464844 19.667969 24.324219 20.222656 24.097656 C 20.398438 24.027344 20.679688 23.945312 20.804688 23.800781 Z M 20.804688 23.800781"/> </g> </svg>
